**harm	**harte	**kern	**silbe	**rhyme	**timestamp	**phrase	**leadinstrument
*M4/4	*M4/4	*ICvox	*	*	*	*	*
*	*	*VRlead	*	*	*	*	*
*	*	*Hstimme	*	*	*	*	*
*D-:	*D-:	*D-:	*	*	*	*	*
*	*	*M4/4	*	*	*	*	*
*	*	*clefF4	*	*	*	*	*
1r;	N	r;	.	.	0	.	r
=1	=1	=1	=1	=1	=1	=1	=1
*>Letter>A	*>Letter>A	*>Letter>A	*>Letter>A	*>Letter>A	*>Letter>A	*>Letter>A	*>Letter>A
*>Label>Intro	*>Label>Intro	*>Label>Intro	*>Label>Intro	*>Label>Intro	*>Label>Intro	*>Label>Intro	*>Label>Intro
1I	D-:maj	1r	.	.	0.372	newline	r
=2	=2	=2	=2	=2	=2	=2	=2
1I	D-:maj	1r	.	.	1.457	.	r
=3	=3	=3	=3	=3	=3	=3	=3
1I	D-:maj	1r	.	.	2.543	.	r
=4	=4	=4	=4	=4	=4	=4	=4
2io	D-:dim	1r	.	.	3.628	.	r
2V7f	A-:7/4	.	.	.	4.171	.	r
=5	=5	=5	=5	=5	=5	=5	=5
2.I	D-:maj	1r	.	.	4.714	newline	r
4V7	A-:7	.	.	.	5.515	.	r
=6	=6	=6	=6	=6	=6	=6	=6
1V7	A-:7	4r	.	.	5.782	.	r
.	.	8c-	Well,	.	.	.	.
.	.	8c-	I	.	.	.	.
.	.	8c-	quit	.	.	.	.
.	.	4c-	my	.	.	.	.
.	.	[8c-	job	.	.	.	.
=7	=7	=7	=7	=7	=7	=7	=7
*>Letter>B	*>Letter>B	*>Letter>B	*>Letter>B	*>Letter>B	*>Letter>B	*>Letter>B	*>Letter>B
*>Label>Verse	*>Label>Verse	*>Label>Verse	*>Label>Verse	*>Label>Verse	*>Label>Verse	*>Label>Verse	*>Label>Verse
1Im7	D-:7	8c-]	_	.	6.85	newline	voice
.	.	4.~A-	down	.	.	.	.
.	.	4~G	at	.	.	.	.
.	.	8G-	the	.	.	.	.
.	.	[8A-	car	.	.	.	.
=8	=8	=8	=8	=8	=8	=8	=8
1Im7	D-:7	8A-]	_	.	7.906	.	voice
.	.	4D-	wash,	.	.	.	.
.	.	8~D-	I	.	.	.	.
.	.	4~F	left	.	.	.	.
.	.	4~G-	my	.	.	.	.
=9	=9	=9	=9	=9	=9	=9	=9
1Im7	D-:7	8~A-	ma-	.	8.962	.	voice
.	.	8~A-	-ma	.	.	.	.
.	.	4G	a	.	.	.	.
.	.	8G-	good-	.	.	.	.
.	.	4F	-bye	.	.	.	.
.	.	[8~A-	note	A	.	.	.
=10	=10	=10	=10	=10	=10	=10	=10
1Im7	D-:7	4~A-]	_	.	10.018	.	voice
.	.	4r	.	.	.	.	.
.	.	8r	.	.	.	.	.
.	.	4.B-	By	.	.	.	.
=11	=11	=11	=11	=11	=11	=11	=11
1Im7	D-:7	8c-	sun-	.	11.074	newline	voice
.	.	4c-	-down	.	.	.	.
.	.	8c-	I'd	.	.	.	.
.	.	8c-	l-	.	.	.	.
.	.	4.c-	-left	.	.	.	.
=12	=12	=12	=12	=12	=12	=12	=12
1Im7	D-:7	4~d-	King-	.	12.121	.	voice
.	.	8D-	-ston,	.	.	.	.
.	.	8D-	a'-	.	.	.	.
.	.	8F	-with	.	.	.	.
.	.	4.G-	my	.	.	.	.
=13	=13	=13	=13	=13	=13	=13	=13
1Im7	D-:7	8~G	gui-	.	13.169	.	voice
.	.	4.~G	-tar	.	.	.	.
.	.	8G-	un-	.	.	.	.
.	.	8D-	-der	.	.	.	.
.	.	8D-	my	.	.	.	.
.	.	8D-	coat	A	.	.	.
=14	=14	=14	=14	=14	=14	=14	=14
1Im7	D-:7	4r	.	.	14.217	.	voice
.	.	8r	.	.	.	.	.
.	.	8D-	I	.	.	.	.
.	.	8B-	hitch-	.	.	.	.
.	.	4B-	-hiked	.	.	.	.
.	.	[8c-	all	.	.	.	.
=15	=15	=15	=15	=15	=15	=15	=15
1IVm7	G-:7	8c-]	_	.	15.264	newline	voice
.	.	8c-	the	.	.	.	.
.	.	16c-	way	.	.	.	.
.	.	8.A-	_	.	.	.	.
.	.	16A-	down	.	.	.	.
.	.	8.G-	_	.	.	.	.
.	.	8G-	to	.	.	.	.
.	.	[8G-	Mem	.	.	.	.
=16	=16	=16	=16	=16	=16	=16	=16
1IVm7	G-:7	8G-]	_	.	16.303	.	voice
.	.	8D-	phis,	.	.	.	.
.	.	8F	got	.	.	.	.
.	.	8F	a	.	.	.	.
.	.	8G-	room	.	.	.	.
.	.	4G-	at	.	.	.	.
.	.	8F	the	.	.	.	.
=17	=17	=17	=17	=17	=17	=17	=17
.	.	8~Fq	_	.	.	.	.
1IVm7	G-:7	4~G-	Y-	.	17.342	.	voice
.	.	8~Fq	_	.	.	.	.
.	.	4~G-	-M-	.	.	.	.
.	.	8~Fq	_	.	.	.	.
.	.	8~G-	-C-	.	.	.	.
.	.	4~A-	-A	B	.	.	.
.	.	8r	.	.	.	.	.
=18	=18	=18	=18	=18	=18	=18	=18
1IVm7	G-:7	2r	.	.	18.38	.	voice
.	.	8r	.	.	.	.	.
.	.	8~F	a'-	.	.	.	.
.	.	8~B-	-for	.	.	.	.
.	.	8~A-	the	.	.	.	.
=19	=19	=19	=19	=19	=19	=19	=19
1Im7	D-:7	4c-	next	.	19.419	newline	voice
.	.	4c-	three	.	.	.	.
.	.	8c-	weeks	.	.	.	.
.	.	8A-	I	.	.	.	.
.	.	8B-	went	.	.	.	.
.	.	8A-	a'-	.	.	.	.
=20	=20	=20	=20	=20	=20	=20	=20
1Im7	D-:7	8c-	-hun-	.	20.453	.	voice
.	.	8c-	-tin'	.	.	.	.
.	.	4c-	them	.	.	.	.
.	.	4c-	nights,	.	.	.	.
.	.	8G-	just	.	.	.	.
.	.	8G-	a'-	.	.	.	.
=21	=21	=21	=21	=21	=21	=21	=21
1Im7	D-:7	8G-	-loo-	.	21.487	.	voice
.	.	8G-	-kin'	.	.	.	.
.	.	8G-	for	.	.	.	.
.	.	8G-	a	.	.	.	.
.	.	4~A-	place	.	.	.	.
.	.	8D-	to	.	.	.	.
.	.	[8D-	play	B	.	.	.
=22	=22	=22	=22	=22	=22	=22	=22
1Im7	D-:7	4D-]	_	.	22.521	.	voice
.	.	4r	.	.	.	.	.
.	.	8r	.	.	.	.	.
.	.	8A-	Well,	.	.	.	.
.	.	4B-	I	.	.	.	.
=23	=23	=23	=23	=23	=23	=23	=23
1V7	A-:7	4c-	thought	.	23.555	newline	voice
.	.	4c-	my	.	.	.	.
.	.	8c-	pic-	.	.	.	.
.	.	8B-	-kin'	.	.	.	.
.	.	4A-	would	.	.	.	.
=24	=24	=24	=24	=24	=24	=24	=24
1V7	A-:7	12c-	set	.	24.539	.	voice
.	.	12c-	'em	.	.	.	.
.	.	[12c-	on	.	.	.	.
.	.	8c-]	_	.	.	.	.
.	.	8B-q	_	.	.	.	.
.	.	[8c-	fire,	C	.	.	.
.	.	4.c-]	_	.	.	.	.
.	.	8A-	but	.	.	.	.
=25	=25	=25	=25	=25	=25	=25	=25
1IVm7	G-:7	8d-	no-	.	25.524	.	voice
.	.	[8d-	-bo	.	.	.	.
.	.	16d-]	_	.	.	.	.
.	.	8d-	dy	.	.	.	.
.	.	6~B-	wan-	.	.	.	.
.	.	6~A-	-ted	.	.	.	.
.	.	6~G-	to	.	.	.	.
.	.	[16D-	hi-	(C	.	.	.
=26	=26	=26	=26	=26	=26	=26	=26
1IVm7	G-:7	4D-]	-re	c)	26.508	.	voice
.	.	4D-	a	.	.	.	.
.	.	8F-	gui-	.	.	.	.
.	.	4D-	-tar	.	.	.	.
.	.	[8D-	man	.	.	.	.
=27	=27	=27	=27	=27	=27	=27	=27
1I	D-:maj	2D-]	_	.	27.492	newline	voice
.	.	2r	.	.	.	.	.
=28	=28	=28	=28	=28	=28	=28	=28
2io	D-:dim	1r	.	.	28.523	.	voice
2V7f	A-:7/4	.	.	.	29.038	.	voice
=29	=29	=29	=29	=29	=29	=29	=29
2.I	D-:maj	1r	.	.	29.553	.	voice
4V7	A-:7	.	.	.	30.326	.	voice
=30	=30	=30	=30	=30	=30	=30	=30
1V7	A-:7	4r	.	.	30.584	.	voice
.	.	8d-	Well,	.	.	.	.
.	.	8B-	I	.	.	.	.
.	.	8d-	near-	.	.	.	.
.	.	8B-	-ly	.	.	.	.
.	.	4d-	'bout	.	.	.	.
=31	=31	=31	=31	=31	=31	=31	=31
*>Letter>B	*>Letter>B	*>Letter>B	*>Letter>B	*>Letter>B	*>Letter>B	*>Letter>B	*>Letter>B
*>Label>Verse	*>Label>Verse	*>Label>Verse	*>Label>Verse	*>Label>Verse	*>Label>Verse	*>Label>Verse	*>Label>Verse
1Im7	D-:7	4d-	starved	.	31.614	newline	voice
.	.	8B-	to	.	.	.	.
.	.	[8d-	death	.	.	.	.
.	.	8d-]	_	.	.	.	.
.	.	4d-	down	.	.	.	.
.	.	8d-	in	.	.	.	.
=32	=32	=32	=32	=32	=32	=32	=32
1Im7	D-:7	8~B-	Mem-	.	32.644	.	voice
.	.	8~D-	-phis	.	.	.	.
.	.	4r	.	.	.	.	.
.	.	4r	.	.	.	.	.
.	.	8r	.	.	.	.	.
.	.	8G-	I	.	.	.	.
=33	=33	=33	=33	=33	=33	=33	=33
1Im7	D-:7	8A-	run	.	33.673	.	voice
.	.	4A-	out-	.	.	.	.
.	.	8A-	-ta	.	.	.	.
.	.	8~G	mo-	.	.	.	.
.	.	8~G	-ney	.	.	.	.
.	.	8~G-	and	.	.	.	.
.	.	8G-q	_	.	.	.	.
.	.	8A-	luck	D	.	.	.
=34	=34	=34	=34	=34	=34	=34	=34
1Im7	D-:7	2r	.	.	34.703	.	voice
.	.	8r	.	.	.	.	.
.	.	8d-	so	.	.	.	.
.	.	8B-	I	.	.	.	.
.	.	[8d-	bought	.	.	.	.
=35	=35	=35	=35	=35	=35	=35	=35
1Im7	D-:7	4d-]	_	.	35.732	newline	voice
.	.	8d-	me	.	.	.	.
.	.	8B-	a	.	.	.	.
.	.	4d-	ride	.	.	.	.
.	.	8d-	down	.	.	.	.
.	.	8B-	to	.	.	.	.
=36	=36	=36	=36	=36	=36	=36	=36
1Im7	D-:7	4d-	Ma-	.	36.762	.	voice
.	.	8B-	-con,	.	.	.	.
.	.	8d-	Geor	.	.	.	.
.	.	8B-	_	.	.	.	.
.	.	8A-	gia	.	.	.	.
.	.	8~F-	on	.	.	.	.
.	.	8~G-	an	.	.	.	.
=37	=37	=37	=37	=37	=37	=37	=37
1Im7	D-:7	8~G	o-	.	37.791	.	voice
.	.	8~G	-ver-	.	.	.	.
.	.	8~G	-loa-	.	.	.	.
.	.	8~G	-ded	.	.	.	.
.	.	4A-	poul-	.	.	.	.
.	.	8D-	-try	.	.	.	.
.	.	8D-	truck	D	.	.	.
=38	=38	=38	=38	=38	=38	=38	=38
1Im7	D-:7	4r	.	.	38.82	.	voice
.	.	8r	.	.	.	.	.
.	.	8A-	I	.	.	.	.
.	.	4c-	thumbed	.	.	.	.
.	.	4c-	on	.	.	.	.
=39	=39	=39	=39	=39	=39	=39	=39
1IVm7	G-:7	4c-	down	.	39.849	newline	voice
.	.	8~A-	to	.	.	.	.
.	.	8~G-	Pa-	.	.	.	.
.	.	8G-	-na-	.	.	.	.
.	.	4.G-	-ma	.	.	.	.
=40	=40	=40	=40	=40	=40	=40	=40
1IVm7	G-:7	8A-	Ci-	.	40.932	.	voice
.	.	8D-	-ty,	.	.	.	.
.	.	8F	star-	.	.	.	.
.	.	8~F	-ted	.	.	.	.
.	.	8G-	pic-	.	.	.	.
.	.	8~F	-kin'	.	.	.	.
.	.	4G-	out	.	.	.	.
=41	=41	=41	=41	=41	=41	=41	=41
1IVm7	G-:7	8G-	some	.	42.014	.	voice
.	.	8G-	of	.	.	.	.
.	.	8G-	them	.	.	.	.
.	.	[8G-	all	.	.	.	.
.	.	8G-]	_	.	.	.	.
.	.	4G-	night	.	.	.	.
.	.	[8A-	bars	E	.	.	.
=42	=42	=42	=42	=42	=42	=42	=42
1IVm7	G-:7	2A-]	_	.	43.096	.	voice
.	.	4r	.	.	.	.	.
.	.	8r	.	.	.	.	.
.	.	8G-	A'-	.	.	.	.
=43	=43	=43	=43	=43	=43	=43	=43
1Im7	D-:7	8c-	-ho-	.	44.178	newline	voice
.	.	8~B-	-pin'	.	.	.	.
.	.	8c-	I	.	.	.	.
.	.	8~B-	could	.	.	.	.
.	.	4c-	make	.	.	.	.
.	.	4~A-	my-	.	.	.	.
=44	=44	=44	=44	=44	=44	=44	=44
1Im7	D-:7	4~c-	-self	.	45.197	.	voice
.	.	8~B-	a	.	.	.	.
.	.	[8~B-	dol	.	.	.	.
.	.	8~B-]	_	.	.	.	.
.	.	8A-	lar	.	.	.	.
.	.	8G	ma-	.	.	.	.
.	.	8G	-kin'	.	.	.	.
=45	=45	=45	=45	=45	=45	=45	=45
1Im7	D-:7	8~G	mu-	.	46.216	.	voice
.	.	8~G	-sic	.	.	.	.
.	.	4~G	on	.	.	.	.
.	.	4~G-	my	.	.	.	.
.	.	8~G-	gui-	.	.	.	.
.	.	8~G	-tar	E	.	.	.
=46	=46	=46	=46	=46	=46	=46	=46
1Im7	D-:7	8D-	_	.	47.235	.	voice
.	.	8r	.	.	.	.	.
.	.	4r	.	.	.	.	.
.	.	8r	.	.	.	.	.
.	.	8A-	I	.	.	.	.
.	.	8B-	got	.	.	.	.
.	.	8A-	the	.	.	.	.
=47	=47	=47	=47	=47	=47	=47	=47
.	.	8B-q	_	.	.	.	.
1V7	A-:7	4c-	same	.	48.253	newline	voice
.	.	8B-q	_	.	.	.	.
.	.	4c-	old	.	.	.	.
.	.	12c-	sto-	.	.	.	.
.	.	12c-	-ry	.	.	.	.
.	.	12~B-	at	.	.	.	.
.	.	8~A-	them	.	.	.	.
.	.	8B-q	_	.	.	.	.
.	.	[8c-	all	.	.	.	.
=48	=48	=48	=48	=48	=48	=48	=48
1V7	A-:7	8c-]	_	.	49.27	.	voice
.	.	8B-q	_	.	.	.	.
.	.	4c-	night	.	.	.	.
.	.	8B-q	_	.	.	.	.
.	.	[8c-	piers	F	.	.	.
.	.	4c-]	_	.	.	.	.
.	.	8r	.	.	.	.	.
.	.	8A-	there	.	.	.	.
=49	=49	=49	=49	=49	=49	=49	=49
1IVm7	G-:7	4d-	ain't	.	50.288	.	voice
.	.	4d-	no	.	.	.	.
.	.	8~B-	room	.	.	.	.
.	.	8~A-	a-	.	.	.	.
.	.	4~G-	-round	.	.	.	.
=50	=50	=50	=50	=50	=50	=50	=50
1IVm7	G-:7	4~G	here	F	51.305	.	voice
.	.	8D-	for	.	.	.	.
.	.	8D-	a	.	.	.	.
.	.	8F-	gui-	.	.	.	.
.	.	4D-	-tar	.	.	.	.
.	.	[8D-	man	.	.	.	.
=51	=51	=51	=51	=51	=51	=51	=51
1I	D-:maj	4.D-]	_	.	52.322	newline	voice
.	.	8G	We	.	.	.	.
.	.	4A-	don't	.	.	.	.
.	.	8A-	need	.	.	.	.
.	.	8G	a	.	.	.	.
=52	=52	=52	=52	=52	=52	=52	=52
2io	D-:dim	8G	gui-	.	53.356	.	voice
.	.	4G-	-tar	.	.	.	.
.	.	[8F	man,	.	.	.	.
2V7f	A-:7/4	4F]	_	.	53.874	.	voice
.	.	8E-	son!	.	.	.	.
.	.	8F	_	.	.	.	.
=53	=53	=53	=53	=53	=53	=53	=53
1Im7	D-:7	1r	.	.	54.391	.	voice
=54	=54	=54	=54	=54	=54	=54	=54
1Im7	D-:7	2r	.	.	55.425	.	voice
.	.	8r	.	.	.	.	.
.	.	8A-	So	.	.	.	.
.	.	4c-	I	.	.	.	.
=55	=55	=55	=55	=55	=55	=55	=55
*>Letter>C	*>Letter>C	*>Letter>C	*>Letter>C	*>Letter>C	*>Letter>C	*>Letter>C	*>Letter>C
*>Label>Bridge	*>Label>Bridge	*>Label>Bridge	*>Label>Bridge	*>Label>Bridge	*>Label>Bridge	*>Label>Bridge	*>Label>Bridge
1IVm7	G-:7	4c-	slept	.	56.46	newline	voice
.	.	8~A-	in	.	.	.	.
.	.	8~G	the	.	.	.	.
.	.	8~G-	ho-	.	.	.	.
.	.	4~G-	-bo	.	.	.	.
.	.	8~G-q	_	.	.	.	.
.	.	[8~A-	jun	.	.	.	.
=56	=56	=56	=56	=56	=56	=56	=56
1IVm7	G-:7	8A-]	_	.	57.469	.	voice
.	.	8D-	gles	.	.	.	.
.	.	4r	.	.	.	.	.
.	.	8r	.	.	.	.	.
.	.	8A-	I	.	.	.	.
.	.	8c-	roamed	.	.	.	.
.	.	8A-	a	.	.	.	.
=57	=57	=57	=57	=57	=57	=57	=57
1IVm7	G-:7	4d-	thou-	.	58.477	.	voice
.	.	8d-	-sand	.	.	.	.
.	.	[8d-	miles	.	.	.	.
.	.	8d-]	_	.	.	.	.
.	.	8D-	_	.	.	.	.
.	.	8D-	of	.	.	.	.
.	.	8F-	track	G	.	.	.
=58	=58	=58	=58	=58	=58	=58	=58
1IVm7	G-:7	2r	.	.	59.486	.	voice
.	.	8r	.	.	.	.	.
.	.	8A-	'Till	.	.	.	.
.	.	4B-	I	.	.	.	.
=59	=59	=59	=59	=59	=59	=59	=59
1Im7	D-:7	4c-	found	.	60.495	newline	voice
.	.	4c-	my-	.	.	.	.
.	.	8c-	-self	.	.	.	.
.	.	8A-	in	.	.	.	.
.	.	4B-	Mo-	.	.	.	.
=60	=60	=60	=60	=60	=60	=60	=60
1Im7	D-:7	8c-	-bi-	.	61.522	.	voice
.	.	8~c-	-le	.	.	.	.
.	.	8c-	A-	.	.	.	.
.	.	8A-	-la-	.	.	.	.
.	.	8B-	-ba-	.	.	.	.
.	.	8A-	-ma	.	.	.	.
.	.	8~G	at	.	.	.	.
.	.	8~G-	a	.	.	.	.
=61	=61	=61	=61	=61	=61	=61	=61
1Im7	D-:7	4~G-	club	.	62.548	.	voice
.	.	4~G-	they	.	.	.	.
.	.	4~G	call	.	.	.	.
.	.	4~G	Big	.	.	.	.
=62	=62	=62	=62	=62	=62	=62	=62
1Im7	D-:7	4D-	Jack's	G	63.575	.	voice
.	.	4r	.	.	.	.	.
.	.	8r	.	.	.	.	.
.	.	8~B-	A	.	.	.	.
.	.	4~B-	lil'	.	.	.	.
=63	=63	=63	=63	=63	=63	=63	=63
1IVm7	G-:7	4~c-	four-	.	64.601	newline	voice
.	.	4~B-	-piece	.	.	.	.
.	.	4~G-	band	.	.	.	.
.	.	8~F	was	.	.	.	.
.	.	8~G-	jam-	.	.	.	.
=64	=64	=64	=64	=64	=64	=64	=64
1IVm7	G-:7	4~D-	-ming,	.	65.628	.	voice
.	.	8~F	so	.	.	.	.
.	.	8~F	I	.	.	.	.
.	.	8~G-	took	.	.	.	.
.	.	4~G-	my	.	.	.	.
.	.	[8G-	gui	.	.	.	.
=65	=65	=65	=65	=65	=65	=65	=65
1IVm7	G-:7	8G-]	_	.	66.655	.	voice
.	.	4G-	tar	.	.	.	.
.	.	8G-	and	.	.	.	.
.	.	4G-	I	.	.	.	.
.	.	8G-	sat	.	.	.	.
.	.	[8~A-	in	H	.	.	.
=66	=66	=66	=66	=66	=66	=66	=66
1IVm7	G-:7	8A-]	_	.	67.681	.	voice
.	.	8D-	_	.	.	.	.
.	.	4r	.	.	.	.	.
.	.	4r	.	.	.	.	.
.	.	8r	.	.	.	.	.
.	.	8A-	I	.	.	.	.
=67	=67	=67	=67	=67	=67	=67	=67
1II7	E-:7	8B-	showed	.	68.708	newline	voice
.	.	8B-	'em	.	.	.	.
.	.	8B-	what	.	.	.	.
.	.	8B-	a	.	.	.	.
.	.	4B-	band	.	.	.	.
.	.	8B-	would	.	.	.	.
.	.	[8B-	sound	.	.	.	.
=68	=68	=68	=68	=68	=68	=68	=68
1II7	E-:7	8B-]	_	.	69.724	.	voice
.	.	8B-	like	.	.	.	.
.	.	4r	.	.	.	.	.
.	.	8r	.	.	.	.	.
.	.	8B-	a'	.	.	.	.
.	.	8B-	with	.	.	.	.
.	.	8B-	a	.	.	.	.
=69	=69	=69	=69	=69	=69	=69	=69
.	.	8d-q	_	.	.	.	.
1V7	A-:7	8e-	swin-	.	70.74	.	voice
.	.	8e-	-gin'	.	.	.	.
.	.	8e-	lit-	.	.	.	.
.	.	8e-	-tle	.	.	.	.
.	.	8c	gui-	.	.	.	.
.	.	4A-	-tar	.	.	.	.
.	.	[8A-	man!	H	.	.	.
=70	=70	=70	=70	=70	=70	=70	=70
1V7	A-:7	4A-]	_	.	71.756	.	voice
.	.	8c-	Show	.	.	.	.
.	.	[8B-	'em,	.	.	.	.
.	.	8B-]	_	.	.	.	.
.	.	4.A-	son!	.	.	.	.
=71	=71	=71	=71	=71	=71	=71	=71
*>Letter>B2	*>Letter>B2	*>Letter>B2	*>Letter>B2	*>Letter>B2	*>Letter>B2	*>Letter>B2	*>Letter>B2
*>Label>Solo	*>Label>Solo	*>Label>Solo	*>Label>Solo	*>Label>Solo	*>Label>Solo	*>Label>Solo	*>Label>Solo
1Im7	D-:7	1r	.	.	72.772	newline	guitar
=72	=72	=72	=72	=72	=72	=72	=72
1Im7	D-:7	1r	.	.	73.8	.	guitar
=73	=73	=73	=73	=73	=73	=73	=73
1IVm7	G-:7	1r	.	.	74.829	.	guitar
=74	=74	=74	=74	=74	=74	=74	=74
1IVm7	G-:7	1r	.	.	75.857	.	guitar
=75	=75	=75	=75	=75	=75	=75	=75
1Im7	D-:7	1r	.	.	76.885	newline	guitar
=76	=76	=76	=76	=76	=76	=76	=76
1Im7	D-:7	1r	.	.	77.923	.	guitar
=77	=77	=77	=77	=77	=77	=77	=77
1Im7	D-:7	1r	.	.	78.961	.	guitar
=78	=78	=78	=78	=78	=78	=78	=78
1Im7	D-:7	1r	.	.	79.999	.	guitar
=79	=79	=79	=79	=79	=79	=79	=79
1Im7	D-:7	1r	.	.	81.037	newline	guitar
=80	=80	=80	=80	=80	=80	=80	=80
1Im7	D-:7	1r	.	.	82.068	.	guitar
=81	=81	=81	=81	=81	=81	=81	=81
1Im7	D-:7	1r	.	.	83.099	.	guitar
=82	=82	=82	=82	=82	=82	=82	=82
1Im7	D-:7	1r	.	.	84.129	.	guitar
=83	=83	=83	=83	=83	=83	=83	=83
1IVm7	G-:7	1r	.	.	85.16	newline	guitar
=84	=84	=84	=84	=84	=84	=84	=84
1IVm7	G-:7	1r	.	.	86.166	.	guitar
=85	=85	=85	=85	=85	=85	=85	=85
1Im7	D-:7	1r	.	.	87.171	.	guitar
=86	=86	=86	=86	=86	=86	=86	=86
1Im7	D-:7	1r	.	.	88.177	.	guitar
=87	=87	=87	=87	=87	=87	=87	=87
1V7	A-:7	1r	.	.	89.183	newline	guitar
=88	=88	=88	=88	=88	=88	=88	=88
1IVm7	G-:7	1r	.	.	90.216	.	guitar
=89	=89	=89	=89	=89	=89	=89	=89
1Im7	D-:7	1r	.	.	91.25	.	guitar
=90	=90	=90	=90	=90	=90	=90	=90
1Im7	D-:7	1r	.	.	92.283	.	guitar
=91	=91	=91	=91	=91	=91	=91	=91
2.I	D-:maj	1r	.	.	93.316	newline	guitar
4V7	A-:7	.	.	.	94.044	.	guitar
=92	=92	=92	=92	=92	=92	=92	=92
1V7	A-:7	8r	.	.	94.286	.	guitar
.	.	4c-	If	.	.	.	.
.	.	8A-	you	.	.	.	.
.	.	8c-	e-	.	.	.	.
.	.	8A-	-ver	.	.	.	.
.	.	8c-	take	.	.	.	.
.	.	8A-	a	.	.	.	.
=93	=93	=93	=93	=93	=93	=93	=93
*>Letter>B	*>Letter>B	*>Letter>B	*>Letter>B	*>Letter>B	*>Letter>B	*>Letter>B	*>Letter>B
*>Label>Verse	*>Label>Verse	*>Label>Verse	*>Label>Verse	*>Label>Verse	*>Label>Verse	*>Label>Verse	*>Label>Verse
1Im7	D-:7	4d-	trip	.	95.256	newline	guitar
.	.	4d-	down	.	.	.	.
.	.	4d-	to	.	.	.	.
.	.	8d-	the	.	.	.	.
.	.	[8B-	o	.	.	.	.
=94	=94	=94	=94	=94	=94	=94	=94
1Im7	D-:7	8B-]	_	.	96.307	.	guitar
.	.	8~D-	cean	.	.	.	.
.	.	8r	.	.	.	.	.
.	.	[8G	find	.	.	.	.
.	.	8G]	_	.	.	.	.
.	.	4G	your-	.	.	.	.
.	.	8A-	-self	.	.	.	.
=95	=95	=95	=95	=95	=95	=95	=95
1Im7	D-:7	8r	.	.	97.358	.	guitar
.	.	4G-	down	.	.	.	.
.	.	8F	a-	.	.	.	.
.	.	4G-	-round	.	.	.	.
.	.	4F	Mo-	.	.	.	.
=96	=96	=96	=96	=96	=96	=96	=96
1Im7	D-:7	4A-	-bile	I	98.409	.	guitar
.	.	4r	.	.	.	.	.
.	.	2r	.	.	.	.	.
=97	=97	=97	=97	=97	=97	=97	=97
1Im7	D-:7	12d-	make	.	99.46	newline	guitar
.	.	12d-	it	.	.	.	.
.	.	12d-	on	.	.	.	.
.	.	[4d-	out	.	.	.	.
.	.	8d-]	_	.	.	.	.
.	.	8B-	to	.	.	.	.
.	.	8A-	a	.	.	.	.
.	.	[8d-	club	.	.	.	.
=98	=98	=98	=98	=98	=98	=98	=98
1Im7	D-:7	8d-]	_	.	100.461	.	guitar
.	.	4.d-	called	.	.	.	.
.	.	4B-	Jack's	.	.	.	.
.	.	8r	.	.	.	.	.
.	.	8D-	you	.	.	.	.
=99	=99	=99	=99	=99	=99	=99	=99
1Im7	D-:7	8~G	got-	.	101.461	.	guitar
.	.	8~G	-ta	.	.	.	.
.	.	8~G	lit-	.	.	.	.
.	.	8~G	-tle	.	.	.	.
.	.	4~G	time	.	.	.	.
.	.	8~G	to	.	.	.	.
.	.	8A-	kill	I	.	.	.
=100	=100	=100	=100	=100	=100	=100	=100
1Im7	D-:7	4D-	_	.	102.462	.	guitar
.	.	4r	.	.	.	.	.
.	.	8r	.	.	.	.	.
.	.	8B-	A'-	.	.	.	.
.	.	4B-	-just	.	.	.	.
=101	=101	=101	=101	=101	=101	=101	=101
1IVm7	G-:7	8~c-	fol-	.	103.463	newline	guitar
.	.	8~B-	-low	.	.	.	.
.	.	4~A-	that	.	.	.	.
.	.	4~G-	crowd	.	.	.	.
.	.	8~F	of	.	.	.	.
.	.	[8A-	peo	.	.	.	.
=102	=102	=102	=102	=102	=102	=102	=102
1IVm7	G-:7	8A-]	_	.	104.522	.	guitar
.	.	8D-	ple,	.	.	.	.
.	.	4G-	you'll	.	.	.	.
.	.	4G-	wind	.	.	.	.
.	.	4G-	up	.	.	.	.
=103	=103	=103	=103	=103	=103	=103	=103
1IVm7	G-:7	8G-	out	.	105.581	.	guitar
.	.	4.G-	on	.	.	.	.
.	.	4G-	his	.	.	.	.
.	.	4G-	dance	.	.	.	.
=104	=104	=104	=104	=104	=104	=104	=104
1IVm7	G-:7	4A-	floor	J	106.64	.	guitar
.	.	4r	.	.	.	.	.
.	.	4r	.	.	.	.	.
.	.	8r	.	.	.	.	.
.	.	8~G-	a'	.	.	.	.
=105	=105	=105	=105	=105	=105	=105	=105
1Im7	D-:7	8c-	dig-	.	107.699	newline	guitar
.	.	8c-	-gin	.	.	.	.
.	.	8c-	the	.	.	.	.
.	.	[8c-	fi	.	.	.	.
.	.	8c-]	_	.	.	.	.
.	.	8A-	nest	.	.	.	.
.	.	8B-	lit-	.	.	.	.
.	.	8A-	-tle	.	.	.	.
=106	=106	=106	=106	=106	=106	=106	=106
.	.	8B-q	_	.	.	.	.
1Im7	D-:7	4c-	five	.	108.727	.	guitar
.	.	8B-q	_	.	.	.	.
.	.	4c-	piece	.	.	.	.
.	.	8B-q	_	.	.	.	.
.	.	4c-	group,	.	.	.	.
.	.	8F	up	.	.	.	.
.	.	8F	a	.	.	.	.
=107	=107	=107	=107	=107	=107	=107	=107
1Im7	D-:7	8G-	down	.	109.755	.	guitar
.	.	8G-	the	.	.	.	.
.	.	8G-	Gulf	.	.	.	.
.	.	8G-	of	.	.	.	.
.	.	4A-	Me-	.	.	.	.
.	.	8D-	-xi-	.	.	.	.
.	.	[8D-	-co	J	.	.	.
=108	=108	=108	=108	=108	=108	=108	=108
1Im7	D-:7	4.D-]	_	.	110.783	.	guitar
.	.	8r	.	.	.	.	.
.	.	4r	.	.	.	.	.
.	.	8r	.	.	.	.	.
.	.	8A-	A'	.	.	.	.
=109	=109	=109	=109	=109	=109	=109	=109
.	.	8B-q	_	.	.	.	.
1V7	A-:7	4c-	guess	.	111.811	newline	voice
.	.	8B-q	_	.	.	.	.
.	.	4c-	who's	.	.	.	.
.	.	8c-	lea-	.	.	.	.
.	.	8B-	-din'	.	.	.	.
.	.	4c-	that	.	.	.	.
=110	=110	=110	=110	=110	=110	=110	=110
.	.	8B-q	_	.	.	.	.
1V7	A-:7	4c-	five	.	112.833	.	voice
.	.	8B-q	_	.	.	.	.
.	.	4c-	piece	.	.	.	.
.	.	8B-q	_	.	.	.	.
.	.	4.c-	band,	H	.	.	.
.	.	8A-	well,	.	.	.	.
=111	=111	=111	=111	=111	=111	=111	=111
1IVm7	G-:7	8d-	would-	.	113.854	.	voice
.	.	8d-	-n't	.	.	.	.
.	.	8d-	ya	.	.	.	.
.	.	[8d-	know,	.	.	.	.
.	.	8d-]	_	.	.	.	.
.	.	8D-	it's	.	.	.	.
.	.	4~F	that	.	.	.	.
=112	=112	=112	=112	=112	=112	=112	=112
1IVm7	G-:7	8G-	swin-	.	114.875	.	voice
.	.	8G-	-gin'	.	.	.	.
.	.	8G-	lit-	.	.	.	.
.	.	8A-	-tle	.	.	.	.
.	.	8F	gui-	.	.	.	.
.	.	4.D-	-tar	.	.	.	.
=113	=113	=113	=113	=113	=113	=113	=113
*>Letter>B2	*>Letter>B2	*>Letter>B2	*>Letter>B2	*>Letter>B2	*>Letter>B2	*>Letter>B2	*>Letter>B2
*>Label>Solo	*>Label>Solo	*>Label>Solo	*>Label>Solo	*>Label>Solo	*>Label>Solo	*>Label>Solo	*>Label>Solo
1Im7	D-:7	2D-	man,	H	115.897	newline	guitar
.	.	4c-	hey!	.	.	.	.
.	.	4r	.	.	.	.	.
=114	=114	=114	=114	=114	=114	=114	=114
1Im7	D-:7	4r	.	.	116.928	.	guitar
.	.	4d-	Hey!	.	.	.	.
.	.	2r	.	.	.	.	.
=115	=115	=115	=115	=115	=115	=115	=115
1IVm7	G-:7	1r	.	.	117.959	.	guitar
=116	=116	=116	=116	=116	=116	=116	=116
1IVm7	G-:7	1r	.	.	118.99	.	guitar
=117	=117	=117	=117	=117	=117	=117	=117
1Im7	D-:7	1r	.	.	120.021	newline	guitar
=118	=118	=118	=118	=118	=118	=118	=118
1Im7	D-:7	1r	.	.	121.07	.	guitar
=119	=119	=119	=119	=119	=119	=119	=119
1Im7	D-:7	1r	.	.	122.12	.	guitar
=120	=120	=120	=120	=120	=120	=120	=120
1Im7	D-:7	8r	.	.	123.169	.	guitar
.	.	4a-	Uh!	.	.	.	.
.	.	4r	.	.	.	.	.
.	.	4.r	.	.	.	.	.
=121	=121	=121	=121	=121	=121	=121	=121
1Im7	D-:7	1r	.	.	124.218	newline	guitar
=122	=122	=122	=122	=122	=122	=122	=122
1Im7	D-:7	1r	.	.	125.246	.	guitar
=123	=123	=123	=123	=123	=123	=123	=123
1Im7	D-:7	1r	.	.	126.273	.	guitar
=124	=124	=124	=124	=124	=124	=124	=124
1Im7	D-:7	2r	.	.	127.3	.	guitar
.	.	8r	.	.	.	.	.
.	.	4d-	Mm-	.	.	.	.
.	.	[8d-	-hm	.	.	.	.
=125	=125	=125	=125	=125	=125	=125	=125
1IVm7	G-:7	4d-]	_	.	128.328	newline	guitar
.	.	4r	.	.	.	.	.
.	.	2r	.	.	.	.	.
=126	=126	=126	=126	=126	=126	=126	=126
1IVm7	G-:7	2r	.	.	129.339	.	guitar
.	.	8r	.	.	.	.	.
.	.	4d-	Mm-	.	.	.	.
.	.	[8d-	-hm	.	.	.	.
=127	=127	=127	=127	=127	=127	=127	=127
1Im7	D-:7	4d-]	_	.	130.349	.	guitar
.	.	4r	.	.	.	.	.
.	.	2r	.	.	.	.	.
=128	=128	=128	=128	=128	=128	=128	=128
1Im7	D-:7	2r	.	.	131.36	.	guitar
.	.	8r	.	.	.	.	.
.	.	4A-	Mm-	.	.	.	.
.	.	[8c-	-hm	.	.	.	.
=129	=129	=129	=129	=129	=129	=129	=129
1V7	A-:7	8c-]	_	.	132.37	newline	guitar
.	.	4A-	mm-	.	.	.	.
.	.	[8B-	-hm	.	.	.	.
.	.	4B-]	_	.	.	.	.
.	.	4r	.	.	.	.	.
=130	=130	=130	=130	=130	=130	=130	=130
1IVm7	G-:7	2r	.	.	133.387	.	guitar
.	.	8r	.	.	.	.	.
.	.	4d-	Mm-	.	.	.	.
.	.	[8d-	-hm	.	.	.	.
=131	=131	=131	=131	=131	=131	=131	=131
1Im7	D-:7	4d-]	_	.	134.403	.	guitar
.	.	4r	.	.	.	.	.
.	.	2r	.	.	.	.	.
=132	=132	=132	=132	=132	=132	=132	=132
1Im7	D-:7	1r	.	.	135.419	.	guitar
1r;	N	r;	.	.	136.436	.	r
*-	*-	*-	*-	*-	*-	*-	*-
!!!BillboardChartDate: 1968/01/27
!!!BillboardPeak: 28
!!!BillboardWeeksOnChart: 20
!!!COC: Elvis Presley
!!!ENC: Nathaniel Condit-Schultz
!!!EST: Awating manual error checking and editing.
!!!OTL: Guitar Man
!!!RDF**harte: Chris Harte's syntax, used by MIREX
!!!RDF**harmony: **recip + pitch class of root + harmonic quality
!!!RDF**leadinstrument: original McGill primary instrumentation annotation
!!!RDF**phrase: newline = linebreak in original McGill transcription
!!!RDF**timestamp: McGill audio timestamp in seconds
!!!RDT: 2017/01/12/
!!!SampleActualRank: 83
!!!SampleID#: 0289
!!!SampleTargetRank: 84
!!!MBID: 5293bde3-2de6-4432-928d-0f053a3fbb1b
